picto/stairs-down-left.svg

<svg class="color-immutable" width="24" height="24" viewBox="0 0 24 24" fill="none" xmlns="http://www.w3.org/2000/svg"><path d="M0 22.5V1.5C0 0.675 0.675 0 1.5 0H22.5C23.325 0 24 0.675 24 1.5V22.5C24 23.325 23.325 24 22.5 24H1.5C0.675 24 0 23.325 0 22.5Z" fill="#2D327D"/><path d="M16.915 17.552H13.501V18.94H10.088V20.328H6.67499V21.003H10.763V19.615H14.176V18.227H17.59V16.839H21.003V16.164H16.915V17.552Z" fill="white"/><path d="M3.52797 11.563C3.59497 11.563 3.66097 11.55 3.72297 11.524L4.27397 11.294V10.196L3.33297 10.589C3.14497 10.668 3.02197 10.852 3.02197 11.056C3.02197 11.336 3.24897 11.563 3.52797 11.563Z" fill="white"/><path d="M3.69299 21.003C4.07599 21.003 4.38699 20.692 4.38699 20.309V17.027L5.99999 14.251V16.6C5.99999 16.738 6.03799 16.873 6.10899 16.99L7.70199 19.606C7.82799 19.813 8.05299 19.939 8.29499 19.939C8.67799 19.939 8.98899 19.628 8.98899 19.245C8.98899 19.118 8.95399 18.993 8.88799 18.884L7.49999 16.606V8.391L8.24999 9.479V12.226C8.24999 12.516 8.48499 12.751 8.77499 12.751C9.06499 12.751 9.29999 12.516 9.29999 12.226V9.319C9.29999 9.167 9.25399 9.018 9.16699 8.893L7.60999 6.634C7.32999 6.228 6.86799 5.986 6.37499 5.986C5.54699 5.986 4.87499 6.658 4.87499 7.486V13.201L3.09999 16.254C3.03399 16.369 2.99799 16.499 2.99799 16.631V20.309C2.99899 20.692 3.30999 21.003 3.69299 21.003Z" fill="white"/><path d="M6.17701 5.635C6.90201 5.635 7.49001 5.047 7.49001 4.322C7.49001 3.597 6.90201 3.009 6.17701 3.009C5.45201 3.009 4.86401 3.597 4.86401 4.322C4.86501 5.047 5.45301 5.635 6.17701 5.635Z" fill="white"/></svg>

<svg class="color-immutable" width="24" height="24" viewBox="0 0 24 24" fill="none" xmlns="http://www.w3.org/2000/svg"><g clip-path="url(#a)"><path d="M0 22.5v-21C0 .675.675 0 1.5 0h21c.825 0 1.5.675 1.5 1.5v21c0 .825-.675 1.5-1.5 1.5h-21C.675 24 0 23.325 0 22.5Z" fill="#2D327D"/><path d="M16.915 17.552h-3.414v1.388h-3.413v1.388H6.675v.675h4.088v-1.388h3.413v-1.388h3.414v-1.388h3.413v-.675h-4.088v1.388ZM3.528 11.563a.503.503 0 0 0 .195-.039l.551-.23v-1.098l-.941.393a.507.507 0 0 0 .195.974Z" fill="#fff"/><path d="M3.693 21.003a.694.694 0 0 0 .694-.694v-3.282L6 14.251V16.6c0 .138.038.273.109.39l1.593 2.616a.694.694 0 0 0 1.186-.722L7.5 16.606V8.391l.75 1.088v2.747a.525.525 0 1 0 1.05 0V9.319a.746.746 0 0 0-.133-.426L7.61 6.634a1.5 1.5 0 0 0-2.735.852v5.715L3.1 16.254a.759.759 0 0 0-.102.377v3.678a.696.696 0 0 0 .695.694ZM6.177 5.635a1.313 1.313 0 1 0 0-2.626 1.313 1.313 0 0 0 0 2.626Z" fill="#fff"/></g><defs><clipPath id="a"><path fill="#fff" d="M0 0h24v24H0z"/></clipPath></defs></svg>
